static/img/kroki/75f9418bd88a115117cb80765460041a.svg

<?xml version="1.0" encoding="us-ascii" standalone="no"?><svg xmlns="http://www.w3.org/2000/svg" xmlns:xlink="http://www.w3.org/1999/xlink" contentStyleType="text/css" height="573px" preserveAspectRatio="none" style="width:328px;height:573px;" version="1.1" viewBox="0 0 328 573" width="328px" zoomAndPan="magnify"><defs/><g><!--class gcp_region--><g id="elem_gcp_region"><rect codeLine="23" fill="#3D176E" height="39.7891" id="gcp_region" rx="2.5" ry="2.5" style="stroke:#000D19;stroke-width:0.5;" width="132" x="65" y="528.16"/><ellipse cx="80" cy="548.0545" fill="#ADD1B2" rx="11" ry="11" style="stroke:#181818;stroke-width:1.0;"/><path d="M82.9688,553.6952 Q82.3906,553.992 81.75,554.1327 Q81.1094,554.2889 80.4063,554.2889 Q77.9063,554.2889 76.5781,552.6483 Q75.2656,550.992 75.2656,547.867 Q75.2656,544.742 76.5781,543.0858 Q77.9063,541.4295 80.4063,541.4295 Q81.1094,541.4295 81.75,541.5858 Q82.4063,541.742 82.9688,542.0389 L82.9688,544.7577 Q82.3438,544.1795 81.75,543.9139 Q81.1563,543.6327 80.5313,543.6327 Q79.1875,543.6327 78.5,544.7108 Q77.8125,545.7733 77.8125,547.867 Q77.8125,549.9608 78.5,551.0389 Q79.1875,552.1014 80.5313,552.1014 Q81.1563,552.1014 81.75,551.8358 Q82.3438,551.5545 82.9688,550.9764 L82.9688,553.6952 Z " fill="#000000"/><text fill="#D9B8FF" font-family="Helvetica" font-size="17" lengthAdjust="spacing" textLength="90" x="99" y="553.9398">gcp_region</text></g><!--class gcp_resource--><g id="elem_gcp_resource"><rect codeLine="26" fill="#3D176E" height="39.7891" id="gcp_resource" rx="2.5" ry="2.5" style="stroke:#000D19;stroke-width:0.5;" width="150" x="7" y="267.58"/><ellipse cx="22" cy="287.4745" fill="#ADD1B2" rx="11" ry="11" style="stroke:#181818;stroke-width:1.0;"/><path d="M24.9688,293.1152 Q24.3906,293.412 23.75,293.5527 Q23.1094,293.7089 22.4063,293.7089 Q19.9063,293.7089 18.5781,292.0683 Q17.2656,290.412 17.2656,287.287 Q17.2656,284.162 18.5781,282.5058 Q19.9063,280.8495 22.4063,280.8495 Q23.1094,280.8495 23.75,281.0058 Q24.4063,281.162 24.9688,281.4589 L24.9688,284.1777 Q24.3438,283.5995 23.75,283.3339 Q23.1563,283.0527 22.5313,283.0527 Q21.1875,283.0527 20.5,284.1308 Q19.8125,285.1933 19.8125,287.287 Q19.8125,289.3808 20.5,290.4589 Q21.1875,291.5214 22.5313,291.5214 Q23.1563,291.5214 23.75,291.2558 Q24.3438,290.9745 24.9688,290.3964 L24.9688,293.1152 Z " fill="#000000"/><text fill="#D9B8FF" font-family="Helvetica" font-size="17" lengthAdjust="spacing" textLength="108" x="41" y="293.3598">gcp_resource</text></g><!--class phantom_resource--><g id="elem_phantom_resource"><rect codeLine="29" fill="#3D176E" height="39.7891" id="phantom_resource" rx="2.5" ry="2.5" style="stroke:#000D19;stroke-width:0.5;" width="198" x="123" y="167.79"/><ellipse cx="138" cy="187.6845" fill="#ADD1B2" rx="11" ry="11" style="stroke:#181818;stroke-width:1.0;"/><path d="M140.9688,193.3252 Q140.3906,193.622 139.75,193.7627 Q139.1094,193.9189 138.4063,193.9189 Q135.9063,193.9189 134.5781,192.2783 Q133.2656,190.622 133.2656,187.497 Q133.2656,184.372 134.5781,182.7158 Q135.9063,181.0595 138.4063,181.0595 Q139.1094,181.0595 139.75,181.2158 Q140.4063,181.372 140.9688,181.6689 L140.9688,184.3877 Q140.3438,183.8095 139.75,183.5439 Q139.1563,183.2627 138.5313,183.2627 Q137.1875,183.2627 136.5,184.3408 Q135.8125,185.4033 135.8125,187.497 Q135.8125,189.5908 136.5,190.6689 Q137.1875,191.7314 138.5313,191.7314 Q139.1563,191.7314 139.75,191.4658 Q140.3438,191.1845 140.9688,190.6064 L140.9688,193.3252 Z " fill="#000000"/><text fill="#D9B8FF" font-family="Helvetica" font-size="17" lengthAdjust="spacing" textLength="156" x="157" y="193.5698">phantom_resource</text></g><!--class region--><g id="elem_region"><rect codeLine="32" fill="#3D176E" height="39.7891" id="region" rx="2.5" ry="2.5" style="stroke:#000D19;stroke-width:0.5;" width="95" x="158.5" y="367.37"/><ellipse cx="173.5" cy="387.2645" fill="#ADD1B2" rx="11" ry="11" style="stroke:#181818;stroke-width:1.0;"/><path d="M176.4688,392.9052 Q175.8906,393.202 175.25,393.3427 Q174.6094,393.4989 173.9063,393.4989 Q171.4063,393.4989 170.0781,391.8583 Q168.7656,390.202 168.7656,387.077 Q168.7656,383.952 170.0781,382.2958 Q171.4063,380.6395 173.9063,380.6395 Q174.6094,380.6395 175.25,380.7958 Q175.9063,380.952 176.4688,381.2489 L176.4688,383.9677 Q175.8438,383.3895 175.25,383.1239 Q174.6563,382.8427 174.0313,382.8427 Q172.6875,382.8427 172,383.9208 Q171.3125,384.9833 171.3125,387.077 Q171.3125,389.1708 172,390.2489 Q172.6875,391.3114 174.0313,391.3114 Q174.6563,391.3114 175.25,391.0458 Q175.8438,390.7645 176.4688,390.1864 L176.4688,392.9052 Z " fill="#000000"/><text fill="#D9B8FF" font-family="Helvetica" font-size="17" lengthAdjust="spacing" textLength="53" x="192.5" y="393.1498">region</text></g><!--class resource--><g id="elem_resource"><rect codeLine="35" fill="#3D176E" height="39.7891" id="resource" rx="2.5" ry="2.5" style="stroke:#000D19;stroke-width:0.5;" width="113" x="48.5" y="7"/><ellipse cx="63.5" cy="26.8945" fill="#ADD1B2" rx="11" ry="11" style="stroke:#181818;stroke-width:1.0;"/><path d="M66.4688,32.5352 Q65.8906,32.832 65.25,32.9727 Q64.6094,33.1289 63.9063,33.1289 Q61.4063,33.1289 60.0781,31.4883 Q58.7656,29.832 58.7656,26.707 Q58.7656,23.582 60.0781,21.9258 Q61.4063,20.2695 63.9063,20.2695 Q64.6094,20.2695 65.25,20.4258 Q65.9063,20.582 66.4688,20.8789 L66.4688,23.5977 Q65.8438,23.0195 65.25,22.7539 Q64.6563,22.4727 64.0313,22.4727 Q62.6875,22.4727 62,23.5508 Q61.3125,24.6133 61.3125,26.707 Q61.3125,28.8008 62,29.8789 Q62.6875,30.9414 64.0313,30.9414 Q64.6563,30.9414 65.25,30.6758 Q65.8438,30.3945 66.4688,29.8164 L66.4688,32.5352 Z " fill="#000000"/><text fill="#D9B8FF" font-family="Helvetica" font-size="17" lengthAdjust="spacing" textLength="71" x="82.5" y="32.7798">resource</text></g><!--reverse link gcp_resource to gcp_region--><g id="link_gcp_resource_gcp_region"><path codeLine="38" d="M88.9517,325.1752 C97.9917,372.8752 118.21,479.56 127.33,527.66 " fill="none" id="gcp_resource-backto-gcp_region" style="stroke:#FFAF37;stroke-width:2.0;"/><polygon fill="none" points="85.6,307.49,83.0566,326.2924,94.8467,324.058,85.6,307.49" style="stroke:#FFAF37;stroke-width:2.0;"/></g><!--reverse link region to gcp_region--><g id="link_region_gcp_region"><path codeLine="39" d="M189.2649,423.6969 C174.8549,454.2169 154.51,497.27 140.08,527.83 " fill="none" id="region-backto-gcp_region" style="stroke:#FFAF37;stroke-width:2.0;"/><polygon fill="none" points="196.95,407.42,183.8392,421.1352,194.6905,426.2586,196.95,407.42" style="stroke:#FFAF37;stroke-width:2.0;"/></g><!--reverse link resource to gcp_resource--><g id="link_resource_gcp_resource"><path codeLine="40" d="M101.7166,64.8393 C97.4766,112.5493 88,218.98 83.72,267.08 " fill="none" id="resource-backto-gcp_resource" style="stroke:#FFAF37;stroke-width:2.0;"/><polygon fill="none" points="103.31,46.91,95.7402,64.3082,107.6931,65.3705,103.31,46.91" style="stroke:#FFAF37;stroke-width:2.0;"/></g><!--reverse link resource to phantom_resource--><g id="link_resource_phantom_resource"><path codeLine="41" d="M129.7881,61.5406 C152.2781,92.0606 185.32,136.9 207.84,167.47 " fill="none" id="resource-backto-phantom_resource" style="stroke:#FFAF37;stroke-width:2.0;"/><polygon fill="none" points="119.11,47.05,124.9579,65.1,134.6183,57.9813,119.11,47.05" style="stroke:#FFAF37;stroke-width:2.0;"/></g><!--reverse link phantom_resource to region--><g id="link_phantom_resource_region"><path codeLine="42" d="M218.9865,225.9312 C215.9265,263.7012 210.63,329.05 207.57,366.88 " fill="none" id="phantom_resource-backto-region" style="stroke:#FFAF37;stroke-width:2.0;"/><polygon fill="none" points="220.44,207.99,213.0061,225.4467,224.9669,226.4157,220.44,207.99" style="stroke:#FFAF37;stroke-width:2.0;"/></g><!--SRC=[XP3DReCm48JlF8Mbd96WKKkGUacHglOILKtlbS5hi00RhKsZzEVTMmgjZ4sIwyotixDR2GO4siuSIGjj3gW3NGlPKQGjsIAgGwOQXMJ5EUNhn3NlbJGNWHrjWJn0ymP65DGbNYfHr1Aq9bUMTKUBkaJLIpR66wHI_rWWZKLb3TLwQmoAl3TWbM5flk7S9TtGrPh5oGruc486E25H5B4uTP6BgyxU_K_inJkGs7xQJXdmQdehVgcpBGV2AkaT-kUVxFX46HEo9DUMzZnsGWauq_SLPUemq9mssbwZ3I0eS-mWyww2TCDuiWW_deA3OdWTAOlk5Q4KIfAF8FYQgLhrM82jTnMLHhMBdfyofsQPjvzX65hBWsbwGL-O62NNSyi5NjkHcvA_0G00]--></g></svg>

<svg xmlns="http://www.w3.org/2000/svg" width="328" height="573" viewBox="0 0 328 573"><rect width="132" height="39.789" x="65" y="528.16" fill="#3D176E" rx="2.5" ry="2.5" style="stroke:#000d19;stroke-width:.5"/><circle cx="80" cy="548.054" r="11" fill="#ADD1B2" style="stroke:#181818;stroke-width:1"/><path d="M82.969 553.695q-.578.297-1.219.438-.64.156-1.344.156-2.5 0-3.828-1.64-1.312-1.657-1.312-4.782t1.312-4.781q1.328-1.657 3.828-1.657.703 0 1.344.157.656.156 1.219.453v2.719q-.625-.579-1.219-.844-.594-.281-1.219-.281-1.344 0-2.031 1.078-.687 1.062-.687 3.156t.687 3.172q.688 1.062 2.031 1.062.625 0 1.219-.265.594-.282 1.219-.86z"/><text x="99" y="553.94" fill="#D9B8FF" font-family="Helvetica" font-size="17" textLength="90">gcp_region</text><rect width="150" height="39.789" x="7" y="267.58" fill="#3D176E" rx="2.5" ry="2.5" style="stroke:#000d19;stroke-width:.5"/><circle cx="22" cy="287.474" r="11" fill="#ADD1B2" style="stroke:#181818;stroke-width:1"/><path d="M24.969 293.115q-.578.297-1.219.438-.64.156-1.344.156-2.5 0-3.828-1.64-1.312-1.657-1.312-4.782t1.312-4.781q1.328-1.656 3.828-1.656.703 0 1.344.156.656.156 1.219.453v2.719q-.625-.579-1.219-.844-.594-.281-1.219-.281-1.343 0-2.031 1.078-.687 1.062-.687 3.156t.687 3.172q.688 1.062 2.031 1.062.625 0 1.219-.265.594-.281 1.219-.86z"/><text x="41" y="293.36" fill="#D9B8FF" font-family="Helvetica" font-size="17" textLength="108">gcp_resource</text><rect width="198" height="39.789" x="123" y="167.79" fill="#3D176E" rx="2.5" ry="2.5" style="stroke:#000d19;stroke-width:.5"/><circle cx="138" cy="187.685" r="11" fill="#ADD1B2" style="stroke:#181818;stroke-width:1"/><path d="M140.969 193.325q-.578.297-1.219.438-.64.156-1.344.156-2.5 0-3.828-1.64-1.312-1.657-1.312-4.782t1.312-4.781q1.328-1.656 3.828-1.656.703 0 1.344.156.656.156 1.219.453v2.719q-.625-.578-1.219-.844-.594-.281-1.219-.281-1.344 0-2.031 1.078-.687 1.062-.687 3.156t.687 3.172q.688 1.062 2.031 1.062.625 0 1.219-.265.594-.281 1.219-.86z"/><text x="157" y="193.57" fill="#D9B8FF" font-family="Helvetica" font-size="17" textLength="156">phantom_resource</text><rect width="95" height="39.789" x="158.5" y="367.37" fill="#3D176E" rx="2.5" ry="2.5" style="stroke:#000d19;stroke-width:.5"/><circle cx="173.5" cy="387.264" r="11" fill="#ADD1B2" style="stroke:#181818;stroke-width:1"/><path d="M176.469 392.905q-.578.297-1.219.438-.64.156-1.344.156-2.5 0-3.828-1.64-1.312-1.657-1.312-4.782t1.312-4.781q1.328-1.656 3.828-1.656.703 0 1.344.156.656.156 1.219.453v2.719q-.625-.579-1.219-.844-.594-.281-1.219-.281-1.344 0-2.031 1.078-.687 1.062-.687 3.156t.687 3.172q.688 1.062 2.031 1.062.625 0 1.219-.265.594-.281 1.219-.86z"/><text x="192.5" y="393.15" fill="#D9B8FF" font-family="Helvetica" font-size="17" textLength="53">region</text><rect width="113" height="39.789" x="48.5" y="7" fill="#3D176E" rx="2.5" ry="2.5" style="stroke:#000d19;stroke-width:.5"/><circle cx="63.5" cy="26.895" r="11" fill="#ADD1B2" style="stroke:#181818;stroke-width:1"/><path d="M66.469 32.535q-.578.297-1.219.438-.64.156-1.344.156-2.5 0-3.828-1.64-1.312-1.657-1.312-4.782t1.312-4.781q1.328-1.656 3.828-1.656.703 0 1.344.156.656.156 1.219.453v2.719q-.625-.578-1.219-.844-.594-.281-1.219-.281-1.344 0-2.031 1.078-.687 1.062-.687 3.156T62 29.879q.688 1.062 2.031 1.062.625 0 1.219-.265.594-.281 1.219-.86z"/><text x="82.5" y="32.78" fill="#D9B8FF" font-family="Helvetica" font-size="17" textLength="71">resource</text><g fill="none"><path d="M88.952 325.175c9.04 47.7 29.258 154.385 38.378 202.485" style="stroke:#ffaf37;stroke-width:2"/><path d="m85.6 307.49-2.543 18.802 11.79-2.234z" style="stroke:#ffaf37;stroke-width:2"/></g><g fill="none"><path d="M189.265 423.697c-14.41 30.52-34.755 73.573-49.185 104.133" style="stroke:#ffaf37;stroke-width:2"/><path d="m196.95 407.42-13.11 13.715 10.85 5.124z" style="stroke:#ffaf37;stroke-width:2"/></g><path fill="none" d="M101.717 64.84C97.477 112.55 88 218.98 83.72 267.08m19.59-220.17-7.57 17.398 11.953 1.063z" style="stroke:#ffaf37;stroke-width:2"/><g fill="none"><path d="M129.788 61.54c22.49 30.52 55.532 75.36 78.052 105.93" style="stroke:#ffaf37;stroke-width:2"/><path d="m119.11 47.05 5.848 18.05 9.66-7.119z" style="stroke:#ffaf37;stroke-width:2"/></g><g fill="none"><path d="M218.987 225.931c-3.06 37.77-8.357 103.119-11.417 140.949" style="stroke:#ffaf37;stroke-width:2"/><path d="m220.44 207.99-7.434 17.457 11.96.969z" style="stroke:#ffaf37;stroke-width:2"/></g></svg>
